public/svg/letter.svg

<svg width="130" height="121" viewBox="0 0 130 121" fill="none" xmlns="http://www.w3.org/2000/svg">
<path d="M114.715 76.345C115.297 63.0977 118.913 50.2955 121.421 37.3139C121.904 36.7355 122.228 36.0413 122.36 35.2998C122.493 34.5582 122.43 33.7949 122.178 33.0852C122.314 32.4445 122.398 31.7847 122.496 31.1358C122.591 30.355 122.375 29.5683 121.895 28.9453C121.416 28.3224 120.71 27.9129 119.932 27.8052C119.083 27.7072 118.223 27.7791 117.403 28.0166C115.853 25.4107 112.299 24.0723 109.401 22.9866C102.885 20.5245 95.9519 19.1113 89.1668 17.6086C80.0799 15.5911 71.0856 13.1012 62.108 10.76C52.1759 8.16701 41.6755 4.6459 31.287 3.51302C31.3409 3.23687 31.2991 2.95062 31.1687 2.70138C31.0383 2.45214 30.827 2.25473 30.5696 2.14164C30.3121 2.02854 30.0238 2.00648 29.7521 2.07909C29.4804 2.15171 29.2415 2.31466 29.0746 2.54116L28.9657 2.71162C28.7234 2.68675 28.4787 2.7223 28.2534 2.8151C28.0282 2.9079 27.8294 3.05506 27.6748 3.24343C27.2528 3.21803 26.8308 3.19264 26.4054 3.18268C24.5944 3.12753 23.7011 5.6162 25.5524 6.39006C25.8341 6.50657 26.1267 6.6093 26.4161 6.72746C10.9215 32.3137 6.9374 64.9691 2.07304 93.8459C1.98478 94.4195 2.08309 95.0063 2.35346 95.5196C2.33623 95.8985 2.41891 96.2753 2.59321 96.6121C2.76751 96.9489 3.0273 97.2339 3.3465 97.4384C3.6657 97.643 4.03309 97.7599 4.41179 97.7775C4.79049 97.7952 5.16718 97.7128 5.50405 97.5387C21.1269 103.136 38.4989 100.262 54.7781 100.964C70.394 101.638 90.1843 102.402 103.451 111.524C104.963 112.564 107.404 112.503 108.49 110.814C114.887 100.816 114.218 87.7621 114.715 76.345ZM107.999 72.3232C107.195 81.585 108.258 93.5123 104.621 102.63C104.496 102.345 104.366 102.084 104.245 101.856C101.612 96.5836 99.4533 91.0871 97.7936 85.4316C94.6235 75.3307 93.0043 62.4941 86.8591 53.486C88.783 52.4435 90.7356 51.4556 92.7242 50.5641C97.0124 48.6457 101.587 47.4661 105.999 45.913C108.709 44.9862 111.364 43.903 113.949 42.669C111.633 52.5124 108.878 62.2621 107.999 72.3232ZM56.269 15.035C65.2809 17.4803 74.2583 20.2007 83.3514 22.3406C93.0754 24.6229 106.053 25.5653 114.156 32.0856C114.281 32.4331 114.512 32.7326 114.816 32.9421C115.12 33.1516 115.482 33.2606 115.851 33.2538L116.028 33.2916C111.841 38.1043 104.656 39.728 98.6435 41.6743C88.4765 45.0269 79.6533 50.6267 70.2008 55.5841C68.0935 56.6923 68.1684 57.249 66.9761 56.5994C65.0479 55.5429 62.9159 52.2642 61.6487 50.5658C57.7523 45.3858 55.0205 39.51 51.9126 33.8848C47.0822 25.1409 40.644 17.3937 34.533 9.47424C41.7016 11.5993 49.1859 13.1138 56.269 15.035ZM29.0227 8.57415C31.8356 14.5238 35.867 19.789 39.5829 25.1725C44.192 31.8519 47.6303 38.992 51.5192 46.0989L51.6539 46.3374C42.4651 52.2144 34.3357 59.7051 26.66 67.4136C20.7504 73.344 14.7029 79.5435 9.24352 86.0863C13.416 59.5474 18.0526 33.2527 29.0227 8.57415ZM60.1328 94.3828C43.8812 93.2107 26.0349 97.2505 10.1283 92.795C16.6922 85.5354 22.8363 77.8233 29.6852 70.7778C37.0758 63.1332 45.0725 56.0994 53.5971 49.7454C56.0808 53.9936 59.1134 57.8958 62.6163 61.3511C65.5771 64.1851 67.8187 64.0739 71.3996 62.1822C75.4954 60.0695 79.4415 57.6747 83.4468 55.3813C85.1012 64.2311 88.4844 73.1427 90.9077 81.7529C92.5658 88.1684 94.7351 94.4406 97.3947 100.509C85.699 96.0877 72.2619 95.2573 60.1328 94.3828Z" fill="#3A3C51"/>
</svg>

<svg xmlns="http://www.w3.org/2000/svg" width="130" height="121" fill="none" xmlns:v="https://vecta.io/nano"><path d="M114.715 76.345c.582-13.247 4.198-26.05 6.706-39.03.483-.578.807-1.273.94-2.014s.07-1.505-.182-2.215c.136-.64.22-1.3.318-1.95.095-.78-.12-1.567-.6-2.2s-1.185-1.032-1.963-1.14a6.44 6.44 0 0 0-2.529.211c-1.55-2.606-5.104-3.944-8.002-5.03-6.516-2.462-13.45-3.875-20.234-5.378-9.087-2.017-18.08-4.507-27.06-6.85-9.932-2.593-20.432-6.114-30.82-7.247a1.24 1.24 0 0 0-.717-1.371 1.24 1.24 0 0 0-1.495.4l-.11.17c-.242-.025-.487.01-.712.103s-.424.24-.58.428l-1.27-.06c-1.81-.055-2.704 2.434-.853 3.207.282.117.574.22.864.337C10.922 32.314 6.937 64.97 2.073 93.846a2.71 2.71 0 0 0 .28 1.674c-.017.38.065.756.24 1.093a2.16 2.16 0 0 0 1.819 1.165 2.16 2.16 0 0 0 1.092-.239c15.623 5.597 32.995 2.723 49.274 3.425 15.616.674 35.406 1.438 48.673 10.56 1.512 1.04 3.953.98 5.04-.7 6.397-9.998 5.728-23.052 6.225-34.47zM108 72.323c-.804 9.262.26 21.19-3.378 30.307a11.56 11.56 0 0 0-.376-.774c-2.633-5.272-4.792-10.77-6.45-16.424-3.17-10.1-4.79-22.937-10.934-31.946 1.924-1.042 3.877-2.03 5.865-2.922 4.288-1.918 8.863-3.098 13.275-4.65a74.16 74.16 0 0 0 7.95-3.244c-2.316 9.843-5.07 19.593-5.95 29.654zM56.27 15.035C65.28 17.48 74.258 20.2 83.35 22.34c9.724 2.282 22.702 3.225 30.805 9.745.125.348.356.647.66.857s.666.318 1.035.312l.177.038c-4.187 4.813-11.372 6.436-17.385 8.383-10.167 3.353-19 8.952-28.443 13.9-2.107 1.108-2.032 1.665-3.225 1.015-1.928-1.056-4.06-4.335-5.327-6.034-3.896-5.18-6.628-11.056-9.736-16.68-4.83-8.744-11.27-16.49-17.38-24.41 7.17 2.125 14.653 3.64 21.736 5.56zm-27.246-6.46c2.813 5.95 6.844 11.215 10.56 16.598 4.61 6.68 8.047 13.82 11.936 20.926l.135.24c-9.19 5.877-17.318 13.368-24.994 21.076-5.9 5.93-11.957 12.13-17.416 18.673 4.172-26.54 8.81-52.834 19.78-77.512zm31.1 85.81C43.88 93.21 26.035 97.25 10.128 92.795c6.564-7.26 12.708-14.972 19.557-22.017 7.39-7.645 15.387-14.678 23.912-21.032a56.01 56.01 0 0 0 9.019 11.606c2.96 2.834 5.202 2.723 8.783.83 4.096-2.113 8.042-4.507 12.047-6.8 1.654 8.85 5.038 17.76 7.46 26.372 1.658 6.416 3.827 12.688 6.487 18.756-11.696-4.42-25.133-5.252-37.262-6.126z" fill="#3a3c51"/></svg>
